public/avatar/item2/48.svg

<svg xmlns:xlink="http://www.w3.org/1999/xlink" height="99.2" width="82.2" xmlns="http://www.w3.org/2000/svg"><use height="15.8" transform="translate(24.45 72.4)" width="13.65" xlink:href="#a"/><defs><g id="a"><path d="M.1 29.05q1.6-.7 5.2-3.4-.15.8-5.35 4.8-4.2-3.05-5.15-4.5l5.3 3.1" fill-rule="evenodd" transform="translate(6.55 -25.65)"/><path d="M-2.8 38q.9.8 1.95 1l.1-2.5L-2.8 38m1.45-3.5.1-3.3q-2.9.75-2.9 3.8l.25 1.15 2.55-1.65m2.8 4.45q1.1-.25 2.05-1.25l-2.15-1.3.1 2.55M.4 29.1q2.7.1 4.6 1.9 1.9 1.8 1.8 4.25-.05 2.5-2 4.25-1.95 1.7-4.65 1.65-2.7-.05-4.55-1.85-1.9-1.8-1.85-4.3.05-2.5 2-4.2Q-2.3 29.05.4 29.1m1.1 5.2L4.35 36l.2-.8q.1-3.35-3.1-4l.05 3.1" fill="#fff" fill-rule="evenodd" transform="translate(6.55 -25.65)"/><path d="M8.05 8.65 8 5.55q3.2.65 3.1 4l-.2.8-2.85-1.7m-1.1-5.2q-2.7-.05-4.65 1.7-1.95 1.7-2 4.2-.05 2.5 1.85 4.3Q4 15.45 6.7 15.5q2.7.05 4.65-1.65 1.95-1.75 2-4.25.1-2.45-1.8-4.25-1.9-1.8-4.6-1.9M8 13.3l-.1-2.55 2.15 1.3q-.95 1-2.05 1.25M5.2 8.85 2.65 10.5 2.4 9.35q0-3.05 2.9-3.8l-.1 3.3m-1.45 3.5 2.05-1.5-.1 2.5q-1.05-.2-1.95-1" fill="none" stroke="#000" stroke-linecap="round" stroke-linejoin="round" stroke-width=".6"/><path d="M-1.15 35.85q.55 0 .25.45l-2.25 1.65q-.45-.1.4-1l1.6-1.1m1.65.4.65-.1.2 3.1-.7-.1-.15-1.3v-1.6m.15-1.55.1-3.65.4-.05.2 3.45 3 1.85q-.2.4-.55.25Q1.5 35.4 1.1 35l-.45-.3" fill="#a885a8" fill-rule="evenodd" transform="translate(6.55 -25.65)"/><path d="M3.25 40.2q-2.5 1.2-5.8 0 7.35 1.4 8.45-3.9.45-2.1-.7-4.05-1.2-2-3.55-2.65 3 .6 4.2 2.85 1.15 2 .4 4.35-.75 2.35-3 3.4" fill="#a885a8" fill-rule="evenodd" transform="translate(6.55 -25.65)"/></g></defs></svg>

<?xml version="1.0" encoding="UTF-8" standalone="no"?>
<svg xmlns:xlink="http://www.w3.org/1999/xlink" height="99.2px" width="82.2px" xmlns="http://www.w3.org/2000/svg">
  <g transform="matrix(1.0, 0.0, 0.0, 1.0, 31.0, 46.75)">
    <use height="15.8" transform="matrix(1.0, 0.0, 0.0, 1.0, -6.55, 25.65)" width="13.65" xlink:href="#shape0"/>
  </g>
  <defs>
    <g id="shape0" transform="matrix(1.0, 0.0, 0.0, 1.0, 6.55, -25.65)">
      <path d="M0.1 29.05 Q1.7 28.35 5.3 25.65 5.15 26.45 -0.05 30.45 -4.25 27.4 -5.2 25.95 L0.1 29.05" fill="#000000" fill-rule="evenodd" stroke="none"/>
      <path d="M-2.8 38.0 Q-1.9 38.8 -0.85 39.0 L-0.75 36.5 -2.8 38.0 M-1.35 34.5 L-1.25 31.2 Q-4.15 31.95 -4.15 35.0 L-3.9 36.15 -1.35 34.5 M1.45 38.95 Q2.55 38.7 3.5 37.7 L1.35 36.4 1.45 38.95 M0.4 29.1 Q3.1 29.2 5.0 31.0 6.9 32.8 6.8 35.25 6.75 37.75 4.8 39.5 2.85 41.2 0.15 41.15 -2.55 41.1 -4.4 39.3 -6.3 37.5 -6.25 35.0 -6.2 32.5 -4.25 30.8 -2.3 29.05 0.4 29.1 M1.5 34.3 L4.35 36.0 4.55 35.2 Q4.65 31.85 1.45 31.2 L1.5 34.3" fill="#ffffff" fill-rule="evenodd" stroke="none"/>
      <path d="M1.5 34.3 L1.45 31.2 Q4.65 31.85 4.55 35.2 L4.35 36.0 1.5 34.3 M0.4 29.1 Q-2.3 29.05 -4.25 30.8 -6.2 32.5 -6.25 35.0 -6.3 37.5 -4.4 39.3 -2.55 41.1 0.15 41.15 2.85 41.2 4.8 39.5 6.75 37.75 6.8 35.25 6.9 32.8 5.0 31.0 3.1 29.2 0.4 29.1 M1.45 38.95 L1.35 36.4 3.5 37.7 Q2.55 38.7 1.45 38.95 M-1.35 34.5 L-3.9 36.15 -4.15 35.0 Q-4.15 31.95 -1.25 31.2 L-1.35 34.5 M-2.8 38.0 L-0.75 36.5 -0.85 39.0 Q-1.9 38.8 -2.8 38.0" fill="none" stroke="#000000" stroke-linecap="round" stroke-linejoin="round" stroke-width="0.6000000000000001"/>
      <path d="M-1.15 35.85 Q-0.6 35.85 -0.9 36.3 L-3.15 37.95 Q-3.6 37.85 -2.75 36.95 L-1.15 35.85" fill="#a885a8" fill-rule="evenodd" stroke="none"/>
      <path d="M0.5 36.25 L1.15 36.15 1.35 39.25 0.65 39.15 0.5 37.85 0.5 36.25" fill="#a885a8" fill-rule="evenodd" stroke="none"/>
      <path d="M0.65 34.7 L0.75 31.05 1.15 31.0 1.35 34.45 4.35 36.3 Q4.15 36.7 3.8 36.55 1.5 35.4 1.1 35.0 L0.65 34.7" fill="#a885a8" fill-rule="evenodd" stroke="none"/>
      <path d="M3.25 40.2 Q0.75 41.4 -2.55 40.2 4.8 41.6 5.9 36.3 6.35 34.2 5.2 32.25 4.0 30.25 1.65 29.6 4.65 30.2 5.85 32.45 7.0 34.45 6.25 36.8 5.5 39.15 3.25 40.2" fill="#a885a8" fill-rule="evenodd" stroke="none"/>
    </g>
  </defs>
</svg>
